src/assets/imgs/icons/wallet/ic_export.svg

<?xml version="1.0" encoding="UTF-8"?>
<svg width="16px" height="16px" viewBox="0 0 16 16" version="1.1" xmlns="http://www.w3.org/2000/svg" xmlns:xlink="http://www.w3.org/1999/xlink">
    <!-- Generator: Sketch 50.2 (55047) - http://www.bohemiancoding.com/sketch -->
    <title>ic_export</title>
    <desc>Created with Sketch.</desc>
    <defs></defs>
    <g id="Page-1" stroke="none" stroke-width="1" fill="none" fill-rule="evenodd">
        <g id="00A_Export" transform="translate(-97.000000, -68.000000)">
            <g id="ic_export" transform="translate(97.000000, 68.000000)">
                <rect id="Guide" fill-opacity="0" fill="#FFFFFF" x="0" y="0" width="16" height="16"></rect>
                <path d="M2.5,1 L13.5,1 C14.327,1 15,1.673 15,2.5 L15,4.5 C15,4.776 14.776,5 14.5,5 C14.224,5 14,4.776 14,4.5 L14,2.5 C14,2.225 13.776,2 13.5,2 L2.5,2 C2.224,2 2,2.225 2,2.5 L2,13.5 C2,13.775 2.224,14 2.5,14 L13.5,14 C13.776,14 14,13.775 14,13.5 L14,11.5 C14,11.224 14.224,11 14.5,11 C14.776,11 15,11.224 15,11.5 L15,13.5 C15,14.327 14.327,15 13.5,15 L2.5,15 C1.673,15 1,14.327 1,13.5 L1,2.5 C1,1.673 1.673,1 2.5,1 M5,8 C5,7.724 5.224,7.5 5.5,7.5 L13.293,7.5 L11.646,5.854 C11.451,5.658 11.451,5.342 11.646,5.146 C11.842,4.951 12.158,4.951 12.354,5.146 L14.853,7.646 C14.899,7.692 14.936,7.748 14.961,7.809 C15.012,7.932 15.012,8.068 14.961,8.191 C14.936,8.252 14.899,8.308 14.853,8.354 L12.354,10.854 C12.256,10.951 12.128,11 12,11 C11.872,11 11.744,10.951 11.646,10.854 C11.451,10.658 11.451,10.342 11.646,10.146 L13.293,8.5 L5.5,8.5 C5.224,8.5 5,8.276 5,8" id="Fill-1" fill="#9091A3"></path>
                <rect id="Overlay" x="0" y="0" width="16" height="16"></rect>
            </g>
        </g>
    </g>
</svg>

<?xml version="1.0" encoding="utf-8"?>
<!-- Generator: Adobe Illustrator 23.0.1, SVG Export Plug-In . SVG Version: 6.00 Build 0)  -->
<svg version="1.1" id="图层_1" xmlns="http://www.w3.org/2000/svg" xmlns:xlink="http://www.w3.org/1999/xlink" x="0px" y="0px"
	 viewBox="0 0 16 16" style="enable-background:new 0 0 16 16;" xml:space="preserve">
<style type="text/css">
	.st0{fill-rule:evenodd;clip-rule:evenodd;fill:#FFFFFF;fill-opacity:0;}
	.st1{fill-rule:evenodd;clip-rule:evenodd;fill:#AEAEAE;}
	.st2{fill:none;}
</style>
<title>ic_export</title>
<desc>Created with Sketch.</desc>
<rect id="Guide" y="0" class="st0" width="16" height="16"/>
<path id="Fill-1" class="st1" d="M2.5,1h11C14.3,1,15,1.7,15,2.5v2C15,4.8,14.8,5,14.5,5S14,4.8,14,4.5v-2C14,2.2,13.8,2,13.5,2h-11
	C2.2,2,2,2.2,2,2.5v11C2,13.8,2.2,14,2.5,14h11c0.3,0,0.5-0.2,0.5-0.5v-2c0-0.3,0.2-0.5,0.5-0.5s0.5,0.2,0.5,0.5v2
	c0,0.8-0.7,1.5-1.5,1.5h-11C1.7,15,1,14.3,1,13.5v-11C1,1.7,1.7,1,2.5,1 M5,8c0-0.3,0.2-0.5,0.5-0.5h7.8l-1.6-1.6
	c-0.2-0.2-0.2-0.5,0-0.7c0.2-0.2,0.5-0.2,0.7,0l2.5,2.5c0,0,0.1,0.1,0.1,0.2C15,7.9,15,8.1,15,8.2c0,0.1-0.1,0.1-0.1,0.2l-2.5,2.5
	C12.3,11,12.1,11,12,11s-0.3,0-0.4-0.1c-0.2-0.2-0.2-0.5,0-0.7l1.6-1.6H5.5C5.2,8.5,5,8.3,5,8"/>
<rect id="Overlay" y="0" class="st2" width="16" height="16"/>
</svg>
